X:16
T:Abbay hills Rant
Z:Jack Campin - http://www.campin.me.uk
S:Blaikie MS (NLS MS.1578) p6, Blaikie #15
M:C|
L:1/8
V:1 midi program 1 74
V:2 midi program 1 46 bass middle = d transpose -24
Q:1/2=100
K:F
[V:1] cB|A2c2 c2de|f4   A4  |A2df c2 A2|c2A2  A2
[V:2] z2|F2f2 f2b2|a4   f4  |f2b2 a2 f2|F2f2  f2
%
[V:1] cB|A2c2 c2de|f4   c2A2|A2GF EF G2|A2F2  F2  ||
[V:2] z2|F2f2 a2b2|a4   f4  |f2a2 c'2c2|F2f2  F2  ||
%
[V:1] cB|A2c2 c2de|fedc f2A2|A2F2 c2 A2|B2G2  G4   |
[V:2] z2|F2f2 a2b2|a4   f2f2|d4   e2 f2|c2c'2 c2 z2|
%
[V:1]    cBAB c2de|fedc ABcA|BAGF EF G2|A2F2 F2   |]
[V:2]    F2f2 a2b2|a4   f4  |f2a2 c'2c2|f2F2 f2   |]
W:Transcription (c) Jack Campin 2009, no mirroring or republication without permission

